X: 1647
T: Annie's
R: waltz
M: 3/4
K: Gmajor
Bc|"G"dg3 B2|G4 AB|"C"ce3 c2|"Am"A4 (3GFE|
"D"D2 F2 A2|"Am"e2 f3e|"D"d6|d4 Bc|
"G"dg3 B2|G4 AB|"C"ce3 c2|"Am"A4 (3GFE|
"D"D2 F2 A2|"D7"e2 d3F|"G"G6|G3z BA||
"G"G2 B2 d2|g2 d2 B2|"C"ce3 c2|"Am"A4 (3GFE|
"D"D2 F2 A2|"Am"e2 f3e|"D"d6|d4 BA|
"G"G2 B2 d2|g2 d2 B2|"C"ce3 c2|"Am"A4 (3GFE|
"D"D2 F2 A2|"D7"e2 d3F|"G"G6|G4||

